X:1
T:Craigellachie Bridge
T:Craigellachie Bridge
T:William Marshall
C:William Marshall
L:1/8
Q:1/8=128
M:4/4
K:D
V:1 treble 
V:1
 A, |: D<D F>A d/c/B/A/ F<D | E<=C =c>E G2 G>B | A<D F>A d/c/B/A/ F<D | E<e c>A d2 d<f | %5
 D<D F>A d/c/B/A/ F<D | E<=C =c>E G2 G>B | A<D F>A d/c/B/A/ F<D | E<e c>A d2 d<f | %9
 d<d f>a d>a f<a | =c>g e>f g2 ga/b/ | a>d f>d a>d g<b | a>d f>d f/g/a f2 | d<d f>a d>a f<a | %14
 g/f/e/d/ =c>e g>b a>g | f<a e>f d<f B>d | A<F d>F A3 :|"^Variation" B/c/ | %18
 d/c/B/A/ G/F/E/D/ d/c/B/A/ G/F/E/D/ | E<=C =c>E G2 G>E | D/E/F/G/ A/B/c/d/ D/E/F/G/ A/B/c/d/ | %21
 D<d c<d A2 G>F | D<d E<d F<d D<d | =C<c c>E G2 G>E | D>d E>d F>d A>d | E<e c>A d2 d<f | %26
 d<d f>a d>a f<a | E<=c c>E G2 G>E | D>d E>d F>d A>d | E<e c>A d2 d<f | d<d f>a d>a f<a | %31
 g/f/e/d/ =c>e g>b ^a>g | f<a e>f d<f B>d | A<F d>F A3 || %34

